X: 139
T: Sunny Banks
R: reel
L: 1/8
M: 4/4
K:D maj
B | "D" AF~F2 d2cA | (3Bcd AF "G"~G2GB |"D" AF~F2  d2cA | (3Bcd AF D3 :||
|: e | "D" fded "A" cAAe | "D"  fdef   "G" g2ag |"D" fded "A" cA~A2 | "D"(3Bcd AF D3 :||


